X:522
T:La Rotta
T:AABBA
Z:Jack Campin, http://www.campin.me.uk/
F:Jack Campin's Nine-Note Tunebook
% last edit 03-02-2013
M:2/4
L:1/16
Q:1/4=132
P:AABBA
K:DDor
[P:A] AB|c2Bc A2d2|dcBc A2AG|[1 GFFE DEFD|
                                          E6:|\
                             [2 GFFE EDDC|D6|]\
[P:B] DE|F2FG A2AB|
                   c2Bc A2AG|GFFE EDDC|[1 E6:|\
                                       [2 D6|] 

